X: 20
T:Hafoty'r Fraich Ddu
M:6/8
L:1/8
Q:130
S:Nansi Richards
R:Jig
A:Wales
Z:brian_martin12345@yahoo.com
K:G
d|dcB Bcd|cBA ABc|BAG GAB|AFDD2d|
dcB Bcd|cBA ABc|BAG AGF|GGGG2:||
=f|ecc cde|dBB Bcd|cAA ABc|BAGd2D|
EFG AcG|FGA BdA|Bcd cBA|GBdg2:||
